X: 1
T: \"Appelbost\"amma g\aangl\aat
R: g\aangl\aat, march
Z: 2017 John Chambers <jc:trillian.mit.edu>
S: handwritten page of unknown origin, with "S-4" at upper right.
M: C
L: 1/8
K: G
DG |\
"G"BcBA B2DG | BcBA B2DG | B2B2 e2d2 | "D7"cAFA D2DF |\
ABAF D2DF | ABAF D2DF | A2c2 B2AF | "G"G6 :|
|: Bd |\
"G"g2g2 g3g | "D7"fgfe c3d | "(G)"e2d2 d2B2 | "G"dedB G2DG |\
B3B B2AB | "C"c2e2 "G"d3B | "D7"d3c AFDF | "G"G6 :|
